images/icons/cart2.svg

<svg width="18" height="18" viewBox="0 0 18 18" fill="none" xmlns="http://www.w3.org/2000/svg">
<path fill-rule="evenodd" clip-rule="evenodd" d="M17.4808 2.10814C17.6385 2.10814 17.7877 2.1809 17.8862 2.30591C17.9848 2.43094 18.022 2.59463 17.9873 2.75085L16.4297 9.77787C16.3764 10.0183 16.166 10.1892 15.9231 10.1892H5.49889L5.89826 11.946H15.8884C16.1752 11.946 16.4077 12.1819 16.4077 12.473C16.4077 12.764 16.1752 13 15.8884 13H5.48518C5.24341 13 5.0336 12.8306 4.97925 12.5915L2.35617 1.05407H0.519222C0.232488 1.05407 0 0.818129 0 0.527054C0 0.235979 0.232488 0 0.519222 0H2.76922C3.01099 0 3.22077 0.169392 3.27515 0.408511L3.66159 2.10814H17.4808ZM5.25923 9.13513H15.5077L16.8317 3.16218H3.90125L5.25923 9.13513Z" fill="#443737"/>
<path fill-rule="evenodd" clip-rule="evenodd" d="M6 16C6 14.8972 6.89722 14 8 14C9.10282 14 10 14.8972 10 16C10 17.1028 9.10278 18 8 18C6.89718 18 6 17.1028 6 16ZM7.09093 16C7.09093 16.5013 7.49873 16.9091 8 16.9091C8.50127 16.9091 8.90907 16.5013 8.90907 16C8.90907 15.4987 8.50127 15.0909 8 15.0909C7.49873 15.0909 7.09093 15.4987 7.09093 16Z" fill="#443737"/>
<path fill-rule="evenodd" clip-rule="evenodd" d="M12 16C12 14.8972 12.8972 14 14 14C15.1028 14 16 14.8972 16 16C16 17.1028 15.1028 18 14 18C12.8972 18 12 17.1028 12 16ZM13.0909 16C13.0909 16.5013 13.4987 16.9091 14 16.9091C14.5013 16.9091 14.9091 16.5013 14.9091 16C14.9091 15.4988 14.5013 15.091 14 15.091C13.4987 15.091 13.0909 15.4988 13.0909 16Z" fill="#443737"/>
</svg>

<svg xmlns="http://www.w3.org/2000/svg" width="18" height="18" fill="none" viewBox="0 0 18 18"><path fill="#443737" fill-rule="evenodd" d="M17.48 2.108c.159 0 .308.073.406.198a.53.53 0 0 1 .101.445L16.43 9.778a.52.52 0 0 1-.507.411H5.5l.4 1.757h9.99c.286 0 .519.236.519.527a.523.523 0 0 1-.52.527H5.485a.52.52 0 0 1-.506-.409L2.356 1.054H.52A.523.523 0 0 1 0 .527C0 .236.232 0 .52 0h2.25c.241 0 .45.17.505.409l.387 1.7zM5.26 9.135h10.248l1.324-5.973H3.902zM6 16c0-1.103.897-2 2-2s2 .897 2 2-.897 2-2 2-2-.897-2-2m1.09 0a.91.91 0 0 0 1.82 0 .91.91 0 0 0-1.82 0M12 16c0-1.103.897-2 2-2s2 .897 2 2-.897 2-2 2-2-.897-2-2m1.09 0a.91.91 0 0 0 1.82 0 .91.91 0 0 0-1.82 0" clip-rule="evenodd"/></svg>
